X:505
T:Wild Flowers For Mary
C:David Mclaughlin
N:From The Lost And Found Album "Classic Bluegrass" Transcribed By Mike Stangeland
R:bluegrass
L:1/8
Q:1/4=210
M:4/4
K:F
z2 AA B2 =B2 | (3"F"[cA][cA][cA] (3[cA][cA][cA] [c2A2] d2 | c2 {G}A2 G2 F2 | "Bb"F2 (3[dB][dB][dB] (3[dB][dB][dB] [d2B2] | 
"Bbm"[_d4B4] C2 F2 | (3"F"[cA][cA][cA] [c2A2] (3"Bb"[dB][dB][dB] [d2B2] | (3"F"[cA][cA][cA] [c2A2] "C"EF G2 | 
"F"(3[FA,][FA,][FA,] (3[FA,][FA,][FA,] (3[FA,][FA,][FA,] (3[FA,][FA,][FA,] | [F8A,8] | 
z8 | z8 | z8 | z8 | z8 | z8 | z8 | z8 | "F"z8 | z8 | z8 | z8 | z8 | z8 | z8 | 


